X: 11241
T: Allegro
C: Gaetano Brandi
Q: "Allegro"
B: "Man of Feeling", Gaetano Brandi, ed. v.1 p.124-125
F: http://archive.org/details/manoffeelingorge00rugg
Z: 2012 John Chambers <jc:trillian.mit.edu>
M: 3/8
L: 1/16
K: D
%%graceslurs 0
% - - - - - - - - - - - - - - - - - - - - - - - - -
% Voice 1 has 4/8 staff/line lengths.
V: 1
|:\
d2d2d2 | d3(Adf) | e2e2e2 | e3(Aeg) |\
f2{a/}g2f2 | {f}e4 d2 | {f/}e2d2e2 | d4 z2 :|
|:\
!p!(a4 f2) | d4 !f!d2 | {f/}e2d2e2 | (f4 d2) |\
!p!(a4 f2) | d4 d2 | {f/}e2d2e2 | d4 z2 "_Fine":|
|:\
d2d2Te2 | (f4 d2) | f2f2Tg2 | a4 f2 |\
d'2d'2d'2 | (d'2c'2b2) | a2g2f2 | (f4 e2) |
d2d2Te2 | (f4 d2) | f2f2Tg2 | (a4 f2) |\
d'2d'2d'2 | d'2a2f2 | {a/}(g2f2g2) | "_Da Capo al Fine"f4 z2 :|
% - - - - - - - - - - - - - - - - - - - - - - - - -
% Voice 2 preserves the original staff/line breaks.
V: 2
|: F2F2F2 | F4 d2 | c2c2c2 | c4 e2 | d2{f/}e2d2 |
{A}G4 F2 | {A/}G2F2G2 | F4 z2 :||: !p!(FAFAFA) | F4 !f!F2 |
{A/}G2F2G2 | (A4 F2) | !p!(FAFAFA) | F4 F2 | {A/}G2F2G2 |
F4 z2 "_Fine":||: F2F2TG2 | (A4 F2) | d2d2Te2 | f4 d2 | f2f2f2 |
f2a2g2 | f2e2d2 | (d4 c2) | F2F2TG2 | (A4 F2) | d2d2Te2 |
(f4 d2) | f2f2f2 | f2f2d2 | {f/}(e2d2e2) | "_Da Capo al Fine"d4 z2 :|
%
%%center -

% Continuation of previous page.

%%sep 2 1 500
%%sep 1 1 500

